packages/foundations/assets/icons/functional/images/human/clothes_hanger.svg

<svg xmlns="http://www.w3.org/2000/svg" width="32" height="32" fill="none"><path fill="#1A1C1F" fill-rule="evenodd" d="M15.52 7.04c-1.937.233-3.487 1.914-3.492 3.79-.001.454.013.532.127.699.392.572 1.222.619 1.618.091.162-.217.182-.28.253-.793.105-.763.514-1.34 1.165-1.645.261-.123.372-.142.809-.142s.548.019.809.142c.406.19.739.508.954.911.153.286.181.399.2.792.019.379.004.502-.086.705-.17.382-.563.759-1.3 1.246-.373.246-.774.557-.893.692-.42.477-.612 1.091-.675 2.157l-.037.618-5.606 1.936c-3.083 1.065-5.725 1.996-5.871 2.069-.336.168-.87.707-1.035 1.043-.736 1.51.112 3.263 1.743 3.603.361.076 23.116.085 23.512.01.916-.174 1.624-.754 1.94-1.591.163-.431.198-1.075.08-1.482-.203-.706-.671-1.302-1.249-1.594-.135-.068-2.775-.997-5.866-2.064l-5.619-1.939.023-.566c.03-.736.084-.827.751-1.275 1.011-.679 1.503-1.18 1.856-1.893.285-.577.387-1.084.352-1.76a4 4 0 0 0-4.463-3.76m6.427 13.071c3.902 1.351 5.636 1.975 5.72 2.058.171.17.165.51-.011.687l-.131.131H16.008c-10.889 0-11.522-.005-11.629-.094a.507.507 0 0 1 .112-.84c.096-.045 2.672-.946 5.722-2.001 5.129-1.776 5.569-1.919 5.84-1.9.212.014 1.844.556 5.894 1.959"/></svg>

<svg width="32" height="32" viewBox="0 0 32 32" fill="none" xmlns="http://www.w3.org/2000/svg"><path d="M15.520 7.040 C 13.583 7.273,12.033 8.954,12.028 10.830 C 12.027 11.284,12.041 11.362,12.155 11.529 C 12.547 12.101,13.377 12.148,13.773 11.620 C 13.935 11.403,13.955 11.340,14.026 10.827 C 14.131 10.064,14.540 9.487,15.191 9.182 C 15.452 9.059,15.563 9.040,16.000 9.040 C 16.437 9.040,16.548 9.059,16.809 9.182 C 17.215 9.372,17.548 9.690,17.763 10.093 C 17.916 10.379,17.944 10.492,17.963 10.885 C 17.982 11.264,17.967 11.387,17.877 11.590 C 17.707 11.972,17.314 12.349,16.577 12.836 C 16.204 13.082,15.803 13.393,15.684 13.528 C 15.264 14.005,15.072 14.619,15.009 15.685 L 14.972 16.303 9.366 18.239 C 6.283 19.304,3.641 20.235,3.495 20.308 C 3.159 20.476,2.625 21.015,2.460 21.351 C 1.724 22.861,2.572 24.614,4.203 24.954 C 4.564 25.030,27.319 25.039,27.715 24.964 C 28.631 24.790,29.339 24.210,29.655 23.373 C 29.818 22.942,29.853 22.298,29.735 21.891 C 29.532 21.185,29.064 20.589,28.486 20.297 C 28.351 20.229,25.711 19.300,22.620 18.233 L 17.001 16.294 17.024 15.728 C 17.054 14.992,17.108 14.901,17.775 14.453 C 18.786 13.774,19.278 13.273,19.631 12.560 C 19.916 11.983,20.018 11.476,19.983 10.800 C 19.864 8.495,17.811 6.766,15.520 7.040 M21.947 20.111 C 25.849 21.462,27.583 22.086,27.667 22.169 C 27.838 22.339,27.832 22.679,27.656 22.856 L 27.525 22.987 16.008 22.987 C 5.119 22.987,4.486 22.982,4.379 22.893 C 4.102 22.665,4.163 22.204,4.491 22.053 C 4.587 22.008,7.163 21.107,10.213 20.052 C 15.342 18.276,15.782 18.133,16.053 18.152 C 16.265 18.166,17.897 18.708,21.947 20.111 " fill="#1A1C1F" stroke="none" fill-rule="evenodd"></path></svg>
